X:1
T:Romance
T:Romance
T:Op. 35, No. 6
T:Reinhold Gliére
C:Reinhold Gliére
%%score 1 { ( 2 3 6 ) | ( 4 5 ) }
L:1/8
Q:1/4=80
M:4/4
K:Eb
V:1 treble transpose=-7 nm="Horn in F" snm="F Hn."
V:2 treble nm="Piano" snm="Pno."
V:3 treble 
V:6 treble 
V:4 bass 
V:5 bass 
V:1
[K:Bb]"^Andante" z8 | z4 z2 z!p! (D | F3 G ABGA | (F3) G- G A2 B) | d3 D- D(=E- (3EFG) | %5
"_cresc." A2- !tenuto!A A3 (A2 |!mf! c3 d =efde) | c4- c2!p! (F2 | _A3 B c_dBc) | _A4- A2 z2 | z8 | %11
 z8 | z8 | z4 z2 z!mf! (A, | C3 D =EFDE | (C3) A _A C2 D) | G4- G (A,2 B, | F8-) | F z z2 z4 | %19
 z4!p! (3z"_cresc."!<(! (=B,^C (3DF3/2c/)!<)! | c6 =B2 | =E4- E z z2 | z8 | %23
 z4!mf! (3z"_cresc."!<(! (D=E (3F_A3/2e/)!<)! | (e6 d2) | G6 (G2 | B2-) (3B_AE C3 (E | =E3 A) A4 | %28
 E3 G G4- | (3G!p!(A,"_cresc."B, (3=B,CD E3 G) | (3z (CD (3EF^F G3 c) | %31
 (3z (EF (3^FGc)!<(! (d e2 G) | (d =B2 c)!<)!!f!!>(! e4-!>)! |!p! e E2 G d3 c- | c C2 E B3 A- | %35
 A (G2 =B, C3) (D | F3 G ABGA | F3) (G- G A2 B) | d3 D- D=E- (3EFG | A3- A A3 A- | A4 ^G4- | %41
 G(A (3=edc A3) _A | _A4 G4- | G(_A (3e_dA F2) z F |!f! (F3 G ABGA) | F3 (G- G A2 B) | %46
 d3 D- D(=E- (3EFG) | A3- !tenuto!A !tenuto!A3 !tenuto!A | %48
 (!tenuto!c3 !tenuto!d !tenuto!=e!tenuto!f!tenuto!d!tenuto!e) | (c3 (([ca] [B_a])) c2 d) | %50
 g3 g- g (=B2 ^c) | f3 f- f (A2 B) | d2 (G2- G _G2 F) | F3 G ABGA | F3 !tenuto!B, B,4- | %55
 B,6- B, z |] %56
V:2
!p!!p! G8- | G8 | ([G,EG]4 [=A,C^F]4) | A2 G2 ^F2 G2 | (G4 =A4) |"_cresc." ([DG-]6 [DG]) z | %6
!mf! D4 ^C4- | C(D (3AGF D3 _D) | [B,_D]4 =A,4- | A,!<(!(B, (3A_G_D B,3) [B,B]!<)! | %10
!mf! [B,EGB]3 [Cc] [Dd][Ee][Cc][Dd] |!<(! [B,EGB]3 [Cc]- [Cc] [Dd]2 [Ee]!<)! | %12
 [Gceg]3 (G- G=A- (3ABc) | (d3 !tenuto!d) d4 | [FBd]4 [^CG^c]4 | [DFBd]4 [_D_d]4 | %16
 [CEc]2- (3[CEc]CE [CGc]2- (3[CGc]CG | z4 (3z =FB (3Bdb | %18
!p! (3[Bdb]"_cresc." [B,D][B,D]- (3[B,D][B,D][B,D]- (3[B,D][B,D][B,D]- (3[B,D][B,D][B,D]- | %19
 (3[B,D][DBd][DBd]- (3[DBd][DBd][DBd]- (3[DBd][DBd][DBd]- (3[DBd][DBd][DBd] | %20
 (3z G=A (3B^cb [Ac=a]4- | [Aca]2 [F=Af]2 [=EA=e]2 [DAd]2 | %22
!mf! (3[DFB_d]"_cresc." [DF][DF]- (3[DF][DF][DF]- (3[DF][DF][DF]- (3[DF][DF][DF]- | %23
 (3[DF][F_df][Fdf]- (3[Fdf][Fdf][Fdf]- (3[Fdf][Fdf][Fdf]- (3[Fdf][Fdf][Fdf] | %24
 (3z Bc (3_d=e_d' [cec']4- | [cec']2 [Aca]2 [Gcg]2 [Fcf]2 | %26
 (3z [FAf][FAf]- (3[FAf][FAf][FAf]- (3[FAf][FAf][FAf]- (3[FAf][FAf][FAf] | %27
"_dim." (3z [F=Bf][FBf]- (3[FBf][FBf][FBf]- (3[FBf][FBf][FBf]- (3[FBf][FBf][FBf] | %28
 (3z [FAdf][FAdf]- (3[FAdf][FAdf][FAdf]- (3[FAdf][FAdf][FAdf]- (3[FAdf][FAdf][FAdf]- | %29
 [FAdf] z z2 z4 | z8 | z8 | z8 | z8 | z8 | z8 |!mf! z2 (3(G,B,E) z2 (3(^F,=A,C) | %37
 z2 (3(G,B,E) z2 (3(EGB) |!mf! z2 (3(G,CG) z2 (3(EGc) | %39
!mf! (3:2:2z2 C (3(B,DG) !tenuto!=A,2 (3(B,DE) | (F3 G =ABGA | F4-) F3 (B, | _D3 E F_GEF) | %43
 _D6- D>B |!f!!f!!f!!f! [B,EGB][Cc][DGBd][Ee] [^F=Ac^f][cc'][Ace=a][Ff] | %45
 [GBeg][Aa][Begb][cc'] [degd'][cc'][Bceb][Gg] | [FGcf][Ee][DEGd][Cc] [B,CEB][=A,=A][G,CEG][^F,^F] | %47
 [G,DG][dg][dg][Gd] [DG][Gd][Gd][dg] | [FBdf][Gg][=Adf=a][Bb] [^c=eg^c'][gg'][egb=e'][cc'] | %49
 [dfad'][cc'][Bdfb][Aa] [GB_dg][Aa][=Adf=a][Bb] | %50
 [cegc'][dd'][egc'e'][gg'] [^fc'd'^f'][gg'][gd'f'g'][=a=a'] | %51
 [bd'f'b'][a=a'][gbd'g'][ff'] [egbe'][dd'][cegc'][Bb] | [Gceg][Aa][Begb][cc'] [Gg]3 [Gg] | %53
 [GBeg]4 [^FAc^f]4 | [GBeg] [Bb]2 [cc'] [dd'][ee'][cc'][dd'] | [Begb]6- [Begb] z |] %56
V:3
 (G,4 [G,C]4 | [G,^C]4 [A,D]4) | x8 | [B,E]8 | [CE]8 | (C2 B,2 =A,2 B,2) | x8 | x8 | x8 | %9
 z4 z2 [=DAB]2 | x8 | x8 | x8 | [DG]8 | D z z2 x4 | x4 (F3 _F) | x8 | [B,C^FB]8 | x8 | x8 | x8 | %21
 x8 | x8 | x8 | x8 | x8 | x8 | x8 | x8 | x8 | x8 | x8 | x8 | x8 | x8 | x8 | x8 | x8 | x8 | x8 | %40
 x8 | x8 | x8 | x8 | x8 | x8 | x8 | C2 B,2 =A,2 B,2 | x8 | x8 | x8 | x8 | x4 d4 | x8 | x8 | x8 |] %56
V:4
 z4 ([A,,,A,,]4 | [=A,,,=A,,]4 [B,,,B,,]4) | ([E,,B,,]4 E,4 | [E,,B,,]8) | [C,G,]8 | %5
"_cresc." [G,,D,]6- [G,,D,] z |!mf! B,8- | B,4- B,2 z2 | [_G,,_G,]8 | %9
 [_G,,_D,_G,]4- [G,,D,G,]2 z2 | (3(E,,B,,E, (3:2:2G, B,2 [E,^F,=A,]4) | %11
 (3((E,,B,,E, (3:2:2G, (B,2- [G,B,]4))) | (3(C,,E,G, (3:2:2C (E2- [CE]4)) | %13
 (3G,,,G,,D,- (3D,G,B, (3DG,D,- (3D,G,,G,,, | (3(B,,,D,F, (3:2:2B, D2 ([=E,B,-]4) | %15
 (3[F,B,])(B,,,F,, (3D,F,B,) (3(E,,B,,G, B,2) | (3A,,-E,-A,- [A,,E,A,]2 (3A,,-E,-G,- [A,,E,G,]2 | %17
 (3D,,D,^F, (3F,B,D (3:2:2D z2 z2 | z2 D,2 E,2 =E,2 | (3F,^F,=A,- (3A,F,G, B,4 | %20
 (3z [G,^C][G,C]- (3[G,C][G,C][G,C]- (3[G,C][G,C][G,C]- (3[G,C][G,C][G,C] | %21
 (3[D,,D,][F,=A,][F,A,]- (3[F,A,][F,A,][F,A,]- (3[F,A,][F,A,][F,A,]- (3[F,A,][F,A,][F,A,] | %22
 z2 (F,2 _G,2 =G,2) | (3A,=A,C- (3CA,B, _D4 | %24
 (3z [B,=E][B,E]- (3[B,E][B,E][B,E]- (3[B,E][B,E][B,E]- (3[B,E][B,E][B,E] | %25
 (3[F,,F,][A,C][A,C]- (3[A,C][A,C][A,C]- (3[A,C][A,C][A,C]- (3[A,C][A,C][A,C] | %26
 (3(_D,,A,,F,- (3F,A,C E2 _DC) | ([G,,F,-=B,-]4 (3[F,,F,B,])G,,G,,, (3G,,F,B, | %28
{B,,,-B,,-A,-} [B,,,B,,A,D]8- | [B,,,B,,A,D] z z2 z4 | z8 | z8 | z8 | z8 | z8 | z8 | %36
!mf! (3(E,,B,,E,) z2 (3(E,,C,E,) z2 | (3(E,,B,,E,) z2 (3(E,G,B,) z2 | %38
!mf! (3(C,,G,,E,) z2 (3(C,G,C) z2 |!mf! (3(G,,D,C) !tenuto!B,2 (3(=A,G,D,) B,2 | %40
 (3z (DF, (3B,D,B,,) (3z (^CG, (3B,=E,B,,) | (3z (DF, (3B,D,B,,) (3z (D,F,, (3B,,F,,B,,,) | %42
 (3z (B,_D, (3_G,B,,_G,,) (3z (=A,E, (3G,C,G,,) | %43
 (3z (B,_D, (3_G,B,,_G,,) (3z (B,G,, (3_F,,A,B,,) | %44
!f!!f!!f! (3E,,B,,G,- (3G,E,B,, (3E,,=A,,^F,- (3F,E,A,, | %45
 (3E,,B,,G,- (3G,E,B,, (3G,,E,B,- (3B,G,E, | (3C,,G,,E,- (3E,C,G,, (3E,,C,G,- (3G,E,C, | %47
 (3z G,D, (3z G,D, (3z G,D, (3z G,D, | (3B,,F,D- (3DB,F, (3B,,=E,^C- (3CB,E, | %49
 (3z [A,DF][A,DF]- (3[A,DF][A,DF][A,DF] (3z [G,_DF][G,DF]- (3[G,DF][G,DF][G,DF] | %50
 (3z [G,CEG][G,CEG]- (3[G,CEG][G,CEG][G,CEG] (3z [^F,C^F][F,CF]- (3[F,CF][F,CF][F,CF] | %51
 (3z [F,B,DF][F,B,DF]- (3[F,B,DF][F,B,DF][F,B,DF] (3z [G,B,EG][G,B,EG]- (3[G,B,EG][G,B,EG][G,B,EG] | %52
 (3z [E,A,CE][E,A,CE]- (3[E,A,CE][E,A,CE][E,A,CE] (3z [D,A,D][D,A,D]- (3[D,A,D][D,A,D][D,A,D] | %53
 [E,,B,,G,]4 [E,=A,C]4 | [E,G,B,E]4[K:treble] [=A,CE^F=A]4 | %55
[K:treble] (3[B,EG][K:bass].E,,.B,, (3.G,.B,.E G2- G z |] %56
V:5
 x8 | x8 | x8 | x8 | x8 | x8 | (([B,,-F,]4 [B,,=E,]4)) | [B,,F,]4- [B,,F,]2 z2 | (_D,4 C,4) | x8 | %10
 x8 | x8 | x8 | x8 | x8 | x8 | x8 | x8 | G,,8- | (3G,, z z z2 z4 | [=A,,,=A,,]8 | x8 | %22
 [B,,,B,,]8- | [B,,,B,,] z z2 z4 | [C,,C,]8 | x8 | x8 | x8 | x8 | x8 | x8 | x8 | x8 | x8 | x8 | %35
 x8 | x8 | x8 | x8 | x8 | x8 | x8 | x8 | x8 | [E,,,E,,]4 [E,,,E,,]4 | [E,,,E,,]8 | %46
 [C,,,C,,]4 [E,,,E,,]4 | [G,,,G,,]8 | [B,,,B,,]4 [B,,,B,,]4 | [B,,,B,,]4 [E,,,E,,]4 | %50
 [A,,,A,,]4 [D,,,D,,]4 | [A,,,A,,]4 [C,,A,,]4 | [F,,,F,,]4 [B,,,B,,]4 | x8 | x4[K:treble] x4 | %55
[K:treble] x2/3[K:bass] x22/3 |] %56
V:6
 x8 | x8 | x8 | x8 | x8 | x8 | x8 | x8 | x8 | x8 | x8 | x8 | x8 | (c2 B2 =A2 B2) | x8 | x8 | x8 | %17
 x8 | x8 | x8 | x8 | x8 | x8 | x8 | x8 | x8 | x8 | x8 | x8 | x8 | x8 | x8 | x8 | x8 | x8 | x8 | %36
 x8 | x8 | x8 | x8 | x8 | x8 | x8 | x8 | x8 | x8 | x8 | x8 | x8 | x8 | x8 | x8 | x8 | x8 | x8 | %55
 x8 |] %56

